public/assets/images/Icons/ember-cookies.svg

<svg xmlns="http://www.w3.org/2000/svg" width="58" height="77" viewBox="0 0 58 77">
  <path fill="#F88D25" d="M21.9761207,41.2806802 C21.0490201,41.2806802 20.2974566,40.5250957 20.2974566,39.593035 C20.2974566,38.6609743 21.0490201,37.9053898 21.9761207,37.9053898 C22.9032212,37.9053898 23.6547847,38.6609743 23.6547847,39.593035 C23.6547847,40.5250957 22.9032212,41.2806802 21.9761207,41.2806802 Z M15.2614644,51.4065513 C14.3343638,51.4065513 13.5828003,50.6509668 13.5828003,49.7189061 C13.5828003,48.7868454 14.3343638,48.0312609 15.2614644,48.0312609 C16.1885649,48.0312609 16.9401284,48.7868454 16.9401284,49.7189061 C16.9401284,50.6509668 16.1885649,51.4065513 15.2614644,51.4065513 Z M27.8514449,50.5627287 C26.9243443,50.5627287 26.1727808,49.8071442 26.1727808,48.8750835 C26.1727808,47.9430228 26.9243443,47.1874383 27.8514449,47.1874383 C28.7785455,47.1874383 29.530109,47.9430228 29.530109,48.8750835 C29.530109,49.8071442 28.7785455,50.5627287 27.8514449,50.5627287 Z M11.9041362,37.9053898 C10.9770357,37.9053898 10.2254722,37.1498053 10.2254722,36.2177446 C10.2254722,35.2856839 10.9770357,34.5300995 11.9041362,34.5300995 C12.8312368,34.5300995 13.5828003,35.2856839 13.5828003,36.2177446 C13.5828003,37.1498053 12.8312368,37.9053898 11.9041362,37.9053898 Z M32.0481051,37.0615672 C31.1210045,37.0615672 30.369441,36.3059828 30.369441,35.3739221 C30.369441,34.4418614 31.1210045,33.6862769 32.0481051,33.6862769 C32.9752056,33.6862769 33.7267691,34.4418614 33.7267691,35.3739221 C33.7267691,36.3059828 32.9752056,37.0615672 32.0481051,37.0615672 Z M42.1200895,28.6233413 C41.1929889,28.6233413 40.4414254,27.8677569 40.4414254,26.9356962 C40.4414254,26.0036355 41.1929889,25.248051 42.1200895,25.248051 C43.0471901,25.248051 43.7987536,26.0036355 43.7987536,26.9356962 C43.7987536,27.8677569 43.0471901,28.6233413 42.1200895,28.6233413 Z M45.4774176,47.1874383 C44.5503171,47.1874383 43.7987536,46.4318538 43.7987536,45.4997931 C43.7987536,44.5677324 44.5503171,43.812148 45.4774176,43.812148 C46.4045182,43.812148 47.1560817,44.5677324 47.1560817,45.4997931 C47.1560817,46.4318538 46.4045182,47.1874383 45.4774176,47.1874383 Z M20.2974566,29.4671639 C19.370356,29.4671639 18.6187925,28.7115794 18.6187925,27.7795187 C18.6187925,26.8474581 19.370356,26.0918736 20.2974566,26.0918736 C21.2245571,26.0918736 21.9761207,26.8474581 21.9761207,27.7795187 C21.9761207,28.7115794 21.2245571,29.4671639 20.2974566,29.4671639 Z M56.8084001,43.7210151 C57.0272931,44.1412062 57.0601944,44.6346084 56.899048,45.0804133 C54.1997912,52.6682421 47.27945,57.9225616 39.2814686,58.456689 C38.8170382,58.4887543 38.3534471,58.5047869 37.8906954,58.5047869 C36.2778321,58.5070885 34.6708859,58.3086884 33.1065028,57.9141111 C32.1528427,57.6837763 31.2181625,57.3802348 30.3106878,57.006158 C30.2354983,56.9730461 30.1628391,56.9344069 30.0933008,56.8905543 C21.755538,61.0473076 11.6707432,58.9206403 5.69717742,51.7459341 C-0.276388371,44.5712278 -0.583489025,34.2164395 4.95427034,26.6966693 C10.4920297,19.1768992 20.4328765,16.4499425 29.0021691,20.0998894 C35.6279897,16.801802 43.519377,17.4235946 49.553214,21.7191849 C50.267747,22.2278162 50.4734639,23.2031281 50.0257579,23.9595339 C49.5655767,24.7419067 49.5579262,25.7122572 50.0057136,26.5018654 C50.4535009,27.2914737 51.2879853,27.7791251 52.1920739,27.7795187 C52.914622,27.7795187 53.5561047,28.244347 53.7845945,28.9334837 C54.0130843,29.6226203 53.7773108,30.3814318 53.1992724,30.8172801 C52.5677051,31.2974345 52.195213,32.0464046 52.1920739,32.8424543 C52.1903982,34.0664057 53.0619154,35.1154037 54.2601881,35.3317309 C54.926085,35.4512012 55.4556028,35.9608037 55.6033865,36.6244112 C55.7511702,37.2880188 55.4883439,37.9759673 54.9366897,38.3694922 C54.2700117,38.8450045 53.8729592,39.6150698 53.870738,40.4368576 C53.8662142,41.5848797 54.6369092,42.5897114 55.7424484,42.8771925 C56.2000357,42.995151 56.587008,43.3014838 56.8084001,43.7210151 Z M4.35014791,38.7492124 C4.36078615,48.0653857 11.870193,55.614969 21.1367886,55.6256642 C30.4077943,55.6256642 37.9234293,48.0698194 37.9234293,38.7492124 C37.9234293,29.4286055 30.4077943,21.8727606 21.1367886,21.8727606 C11.865783,21.8727606 4.35014791,29.4286055 4.35014791,38.7492124 Z M39.0598849,55.0898369 C45.172592,54.6809342 50.5774539,50.9544708 53.1589844,45.3690006 C50.6062427,43.6787793 49.7690078,40.3031161 51.2335567,37.6058328 C48.9963437,35.9573846 48.2131045,32.9590271 49.355971,30.418152 C47.0001481,29.1140529 45.8270691,26.3673237 46.5089567,23.7519535 C42.3667036,21.2536981 37.347765,20.6924386 32.760698,22.2145088 C41.0727779,28.1170597 43.7004721,39.3252306 38.8853038,48.3384123 C39.4846941,48.7605893 39.7429497,49.5245096 39.5235853,50.2264495 C39.3042209,50.9283893 38.6577993,51.4065542 37.9259473,51.4082389 C37.6180578,51.406801 37.3166573,51.3191405 37.05556,51.1550921 C36.0745882,52.424275 34.9476394,53.5722651 33.6982319,54.5751051 C33.7662178,54.5928254 33.835043,54.6164524 33.9021895,54.632485 C35.5863934,55.0590975 37.3274058,55.2134795 39.0598849,55.0898369 Z"/>
</svg>

<svg xmlns="http://www.w3.org/2000/svg" width="58" height="77"><path fill="#F88D25" d="M21.976 41.28a1.683 1.683 0 0 1-1.679-1.687c0-.932.752-1.688 1.68-1.688.926 0 1.678.756 1.678 1.688 0 .932-.752 1.688-1.679 1.688zm-6.715 10.127a1.683 1.683 0 0 1-1.678-1.688c0-.932.751-1.688 1.678-1.688.928 0 1.68.756 1.68 1.688 0 .932-.752 1.688-1.68 1.688zm12.59-.844a1.683 1.683 0 0 1-1.678-1.688c0-.932.751-1.688 1.678-1.688.928 0 1.68.756 1.68 1.688 0 .932-.752 1.688-1.68 1.688zM11.904 37.905a1.683 1.683 0 0 1-1.679-1.687c0-.932.752-1.688 1.68-1.688.926 0 1.678.756 1.678 1.688 0 .932-.752 1.687-1.679 1.687zm20.144-.843a1.683 1.683 0 0 1-1.679-1.688c0-.932.752-1.688 1.68-1.688.926 0 1.678.756 1.678 1.688 0 .932-.752 1.688-1.679 1.688zm10.072-8.439a1.683 1.683 0 0 1-1.679-1.687c0-.932.752-1.688 1.68-1.688.926 0 1.678.756 1.678 1.688 0 .932-.752 1.687-1.679 1.687zm3.357 18.564A1.683 1.683 0 0 1 43.8 45.5c0-.932.751-1.688 1.678-1.688.928 0 1.68.756 1.68 1.688 0 .932-.752 1.687-1.68 1.687zm-25.18-17.72a1.683 1.683 0 0 1-1.678-1.687c0-.933.751-1.688 1.678-1.688.928 0 1.68.755 1.68 1.688 0 .932-.752 1.687-1.68 1.687zm36.511 14.254c.22.42.252.914.091 1.36-2.7 7.587-9.62 12.842-17.618 13.376-.464.032-.928.048-1.39.048a19.448 19.448 0 0 1-4.784-.59 19.106 19.106 0 0 1-2.796-.909 1.667 1.667 0 0 1-.218-.115c-8.337 4.156-18.422 2.03-24.396-5.145-5.973-7.175-6.28-17.53-.743-25.05 5.538-7.52 15.479-10.246 24.048-6.596a20.026 20.026 0 0 1 20.551 1.62c.715.508.92 1.483.473 2.24a2.543 2.543 0 0 0-.02 2.542 2.516 2.516 0 0 0 2.186 1.278 1.68 1.68 0 0 1 1.593 1.153 1.693 1.693 0 0 1-.586 1.884 2.556 2.556 0 0 0-1.007 2.025 2.522 2.522 0 0 0 2.068 2.49c.666.12 1.196.629 1.343 1.292a1.692 1.692 0 0 1-.666 1.745 2.547 2.547 0 0 0-1.066 2.068 2.508 2.508 0 0 0 1.871 2.44 1.68 1.68 0 0 1 1.066.844zM4.35 38.749c.01 9.316 7.52 16.866 16.787 16.877 9.27 0 16.786-7.556 16.786-16.877 0-9.32-7.515-16.876-16.786-16.876S4.35 29.429 4.35 38.749zm34.71 16.34c6.113-.408 11.517-4.135 14.099-9.72-2.553-1.69-3.39-5.066-1.925-7.763a5.918 5.918 0 0 1-1.878-7.188 5.914 5.914 0 0 1-2.847-6.666 16.53 16.53 0 0 0-13.748-1.537c8.312 5.902 10.94 17.11 6.124 26.123.6.423.858 1.187.639 1.888a1.68 1.68 0 0 1-1.598 1.182 1.65 1.65 0 0 1-.87-.253 20.317 20.317 0 0 1-3.358 3.42c.068.018.137.041.204.057 1.684.427 3.425.581 5.158.458z"/></svg>
